blockchains/ethereum/assets/0x103c3A209da59d3E7C4A89307e66521e081CFDF0/logo.svg

<svg fill="none" height="250" viewBox="0 0 250 250" width="250" xmlns="http://www.w3.org/2000/svg" xmlns:xlink="http://www.w3.org/1999/xlink"><clipPath id="a"><path d="m0 0h250v250h-250z"/></clipPath><g clip-path="url(#a)"><path d="m125 250c69.036 0 125-55.964 125-125 0-69.0356-55.964-125-125-125-69.0356 0-125 55.9644-125 125 0 69.036 55.9644 125 125 125z" fill="#16b9ad"/><path d="m203.125 103.07c0 42.25-35.055 76.618-78.125 76.618-43.0703 0-78.125-34.376-78.125-76.602 0-3.1094.1875-6.2266.5781-9.3204h14.0313c-.4688 3.086-.7031 6.2031-.7031 9.3204 0 34.726 28.8124 62.984 64.2267 62.984 33.797 0 61.578-25.718 64.062-58.242h-99.3825c2.1094 15.188 14.0855 27.25 29.5075 29.742 15.43 2.485 30.703-5.187 37.672-18.906h15.039c-6.836 19.703-25.703 32.953-46.922 32.969-27.3121 0-49.5387-21.789-49.5387-48.563 0-3.1247.3125-6.2497.9141-9.32h126.1876c.391 3.0938.578 6.2031.578 9.32z" fill="#fff"/></g></svg>

<svg width="250" height="250" viewBox="0 0 250 250" fill="none" xmlns="http://www.w3.org/2000/svg">
<g clip-path="url(#clip0_30_503)">
<path d="M125 250C194.036 250 250 194.036 250 125C250 55.9644 194.036 0 125 0C55.9644 0 0 55.9644 0 125C0 194.036 55.9644 250 125 250Z" fill="#16B9AD"/>
<path d="M203.125 103.07C203.125 145.32 168.07 179.688 125 179.688C81.9297 179.688 46.875 145.312 46.875 103.086C46.875 99.9766 47.0625 96.8594 47.4531 93.7656H61.4844C61.0156 96.8516 60.7813 99.9687 60.7813 103.086C60.7813 137.812 89.5937 166.07 125.008 166.07C158.805 166.07 186.586 140.352 189.07 107.828H89.6875C91.7969 123.016 103.773 135.078 119.195 137.57C134.625 140.055 149.898 132.383 156.867 118.664H171.906C165.07 138.367 146.203 151.617 124.984 151.633C97.6719 151.633 75.4453 129.844 75.4453 103.07C75.4453 99.9453 75.7578 96.8203 76.3594 93.75H202.547C202.938 96.8438 203.125 99.9531 203.125 103.07Z" fill="white"/>
</g>
<defs>
<clipPath id="clip0_30_503">
<rect width="250" height="250" fill="white"/>
</clipPath>
</defs>
</svg>
